X: 10851
T: PADDY WHACK
%R: jig
B: "Edinburgh Repository of Music" v.1 p.85 #1
F: http://digital.nls.uk/special-collections-of-printed-music/pageturner.cfm?id=87776133
Z: 2015 John Chambers <jc:trillian.mit.edu>
M: 6/8
L: 1/8
K: G
G |\
GBd g>fg | (ed)c (cB)A | GBd efg | fdd d2d |\
ece efg | dBG {B}A2G | GAB cAd | BGG G2 :|
|: c |\
BdB cec | dBG {B}A2G | GBd efg | fdd d2d |\
ece efg | dBG {B}A2G | GAB cAd | BGG G2 :|
